ix/cloud-change_twotone.svg

<svg viewBox="0 0 24 24" fill="none" xmlns="http://www.w3.org/2000/svg" height="1em" width="1em">
  <path d="M8.11028 11.8498C5.29028 12.0498 5.30028 16.1498 8.11028 16.3498H14.7803C15.5903 16.3598 16.3703 16.0498 16.9703 15.5098C18.9503 13.7798 17.8903 10.3098 15.2903 9.97976C14.3603 4.33976 6.2103 6.47976 8.1403 11.8498" stroke="#292D32" stroke-width="1.5" stroke-miterlimit="10" stroke-linecap="round" stroke-linejoin="round"/>
  <g opacity="0.4">
    <path d="M2 15C2 18.87 5.13 22 9 22L7.95001 20.25" stroke="#292D32" stroke-width="1.5" stroke-linecap="round" stroke-linejoin="round"/>
    <path d="M22 9C22 5.13 18.87 2 15 2L16.05 3.75" stroke="#292D32" stroke-width="1.5" stroke-linecap="round" stroke-linejoin="round"/>
  </g>
</svg>

<svg viewBox="0 0 24 24" fill="none" xmlns="http://www.w3.org/2000/svg" height="1em" width="1em">
  <path d="M8.11 11.85c-2.82.2-2.81 4.3 0 4.5h6.67c.81.01 1.59-.3 2.19-.84 1.98-1.73.92-5.2-1.68-5.53-.93-5.64-9.08-3.5-7.15 1.87" stroke="#292D32" stroke-width="1.5" stroke-miterlimit="10" stroke-linecap="round" stroke-linejoin="round"/>
  <path d="M2 15c0 3.87 3.13 7 7 7l-1.05-1.75M22 9c0-3.87-3.13-7-7-7l1.05 1.75" opacity=".4" stroke="#292D32" stroke-width="1.5" stroke-linecap="round" stroke-linejoin="round"/>
</svg>
